X:147
T:Girl that Broke My Heart, The
R:reel
H:See also #494
D:Joe Holmes & Len Graham: After Dawning
D:Kevin Burke: If the Cap Fits.
Z:id:hn-reel-147
M:C|
K:Gmix
dc |: BG~G2 EC~C2 | DGG^F GABc | defd cAGF | DFFE F2dc |
BGFD EC~C2 | DGG^F GABc | defd cAGF |1 DGG^F G2dc :|2 DGG^F G3D ||
|: G2Bd gdBG | F2Ac fcAF | G2Bd gdBd | ~c3d cA^FA |
G2Bd gdBG | F2Ac fcAF | GABd cAGF |1 DGG^F GDE^F :|2 DGG^F G2dc ||
P:Variations:
|: _BGAG FDCF | DGG=F GA_Bc | defd cAGF | DFFE F2dc |
_BGAG FDCF | DGG=F GA_Bc | defd cAGF |1 DGG=F G2dc :|2 DGG=F GDE^F ||
 |: G2Bd gG~G2 | F2Ac fF~F2 | G2Bd gdBd | cBcd cBA^F |
G2Bd gG~G2 | F2Ac fF~F2 | dcBG AFGF |1 DGGF GDE^F :|2 DGGF G2dc ||
P:More variations
|: BGFD ECCE | DGG^F GABc | defd cAGF | DFFE F2dc |
BGFD ECCE | DGG^F GABc | defd cAGF |1 DGG^F G2dc :|2 DGG^F GDE^F ||

